X: 220
T: the Young Black Cow   #2
R: air, waltz
%S: s:2 b:20(10+10
B: O'Neill's 1850 #220
Z: 1997 by John Chambers <jc@trillian.mit.edu>
N: The first section has a segno over the first bar.
N: The first section ends with a fermata over the double bar.
N: The second section ends with a segno over the double bar.
P: Play ABA
Q: "Slow"
M: 3/4
L: 1/8
K: Gm
    GF "^A"|: D2 G2 G^F | G2 A2 c2 | (d=e)(f_e)(dc) | A4 \
[1  dB | A2 G2 G^F | G3 A B2 | A2 G2 FD | D4 D2 :|\
[2 ^fg | {g}a2 g=f (ed/c/) | d3 =e f2 |
                                      | G2 G2 ({B}AG/F/) | HG4 \
"^B"|[| d2 | d2 g2 (g^f) | g3 a b2 | a2 g2 fd | d4 \
       =e2 | f3 g fd | f2 g2 a>g | (fd)(cB)(AG) | F4 "^->A"(GF) |]
